X:1
T:Title
%%score { ( 1 3 ) | ( 2 4 ) }
L:1/8
M:4/4
K:Ab
V:1 treble nm="Grand Piano"
V:3 treble 
V:2 bass 
V:4 bass 
V:1
 z4 z2[Q:1/4=100] [CE][CF] | [CE]>[CE] [CA][DB] [Ec][Ec][DB][Ec] | [Fd]4 F2 A>A | %3
 [CE]>[CE] [CA][DB] [Ec]<[Ee] [Ed][Ec] | [EB]6 [Gc][GB] | A>A AA AA[GB][_Gc] | %6
[M:9/8] [Fd]3- [Fd] [DF]2- [DF][FA][=EB] |[M:4/4] c>c cc d<c c>B |[M:3/4] [CA]6 | %9
[M:1/4] [_GA]>[GA] |[M:4/4] [FA]2 [Fd]4 [Fd]d | d2 c4 [Ec][Ed] | %12
 [Ee]>[Ee] [Ec][EB] [EA][EA][=DB][Dc] | [EB]6 [DE]2 | [CE]>[CE] [CA][DB] [Ec][_Ge][Fd][Ec] | %15
[M:5/4] [FB]2 [Fd]6 [Fd]2 |[M:9/8] c<.cA Bc<A z z z/4 B3/4 |[M:4/4] [CA]6 z2 |] %18
V:2
 z4 z2 [A,,A,][A,,A,] | [A,,A,]>[A,,A,] [A,,A,][A,,A,] [A,,A,][A,,A,][A,,A,][A,,A,] | %2
 [D,A,]4 [D,A,D]2 [D,F,D]>[D,F,D] | [A,,A,]>[A,,A,] [A,,A,][A,,A,] [A,,A,]<[C,A,] [B,,G,][A,,A,] | %4
 [E,G,]6 [E,E][E,D] | [A,CE]>[A,CE] [A,DF][A,CF] [A,CE][K:bass][A,CE][A,,A,][A,,A,] | %6
[M:9/8] [D,A,]3- [D,A,] [D,A,]2- [D,A,][D,A,][D,A,] | %7
[M:4/4] [E,A,E]>[E,A,E] [E,A,E][E,A,E] [E,A,F]<[E,A,E] [E,G,E]>[E,G,D] |[M:3/4] [A,,A,]6 | %9
[M:1/4] [C,A,]>[C,A,] |[M:4/4] [D,A,]2 [D,A,]4 [E,A,][K:treble][F,A,F] | %11
 [A,F]2[K:bass] [A,E]4 [A,,A,][B,,G,] | [C,A,]>[C,A,] [A,,A,][B,,G,] [C,A,][C,A,][B,,F,][B,,A,] | %13
 [E,G,]6 [E,G,]2 | [A,,A,]>[A,,A,] [A,,A,][A,,A,] [A,,A,][A,,A,][A,,A,][A,,A,] | %15
[M:5/4] [D,A,]2 [D,A,]6 [D,A,]2 |[M:9/8] z3 z3 B,3 |[M:4/4] [A,,A,]6 z2 |] %18
V:3
 x8 | x8 | x8 | x8 | x8 | x8 |[M:9/8] x9 |[M:4/4] x8 |[M:3/4] x6 |[M:1/4] x2 |[M:4/4] x8 | x8 | %12
 x8 | x8 | x8 |[M:5/4] x10 |[M:9/8] z3 z3 G3 |[M:4/4] x8 |] %18
V:4
 x8 | x8 | x8 | x8 | x8 | x5[K:bass] x3 |[M:9/8] x9 |[M:4/4] x8 |[M:3/4] x6 |[M:1/4] x2 | %10
[M:4/4] x7[K:treble] x | x2[K:bass] x6 | x8 | x8 | x8 |[M:5/4] x10 | %16
[M:9/8] [E,A,E]<.[E,A,E][E,A,C] [E,A,D][E,A,E]<[E,A,C] [E,D]2- [E,D]/<[E,G,D]/ |[M:4/4] x8 |] %18

